X:71
T:Blow, Boys, Blow
M:C|
L:1/4
K:Eb
B,2|\
E2F2 GGG>E|G2F2  FE3|F4 G4|A6 c2|
B2G2 A2FF|E2B,2 E2F2|G2B2 FFB2|E6||
